X: 176
T: The New Polones
%R: march, reel
B: Chas & Sam Thompson "Twenty Four Country Dances for the Year 1780", London 1780, p.88 #2
F: http://www.vwml.org/browse/browse-collections-dance-tune-books/browse-thompsons1780
Z: 2014 John Chambers <jc:trillian.mit.edu> (added dance description)
M: 2/4
L: 1/16
K: A
% - - - - - - - - - - - - - - - - - - - - - - - - - - - - -
|:\
A2cA {A}G2FE | A2cA {A}G2FE | e2e2 {d}c2BA | B2B2 {A}G2FE |\
A2cA {A}G2FE | A2cA {A}G2FE | ABcd efga | ecBc A4 :|
|:\
cdef e2fg | {b}a2gf e4 | cdef {f}e2dc | BABc B2E2 |\
cdef e2fg | {b}a2gf e4 | cdef {f}e2dc | BABc A4 :|
% - - - - - - - - - - Dance description - - - - - - - - - -
%%begintext align
%%   Right Hands across Left hands back again .|. Cross
%% over one Cu. Lead thro' the top and cast off :|.
%% Allemand with the right hand then with the Left .|:
%% Lead thro' the bottom and top :|:
%%endtext

%%sep 1 1 500
%%sep 1 1 500
